X: 465
T: Sibao zhuzhu
L: 1/8
M: 4/4
K: Bb
f g f df2f d [I:setbarnb 1]| 
c'2>f'2 d' c' b f | 
f' f' f' c' f' d' c' g | 
bf2gf4 | 
f g b c' f' d' c' g | 
b b b c' g f d c | 
b b b f b g f d | 
f d c GB4 |]

@@@ Tune index: 9339
